frontend/assets/km.svg

<svg fill="#000000" xmlns="http://www.w3.org/2000/svg" viewBox="0 0 64 64" preserveAspectRatio="none"><path d="M 39 2 C 37.347656 2 36 3.347656 36 5 L 36 6.183594 C 35.6875 6.070313 35.351563 6 35 6 L 27 6 C 25.347656 6 24 7.347656 24 9 L 24 12.65625 C 23.78125 12.53125 23.554688 12.421875 23.296875 12.355469 L 17.5 10.800781 C 16.730469 10.597656 15.921875 10.699219 15.226563 11.101563 C 14.535156 11.5 14.035156 12.148438 13.828125 12.921875 L 6.578125 39.96875 C 6.152344 41.570313 7.101563 43.214844 8.703125 43.644531 L 10.03125 44 L 3 44 C 1.347656 44 0 45.347656 0 47 L 0 53 C 0 54.652344 1.347656 56 3 56 L 8 56 L 8 61 C 8 62.652344 9.347656 64 11 64 C 12.652344 64 14 62.652344 14 61 L 14 56 L 50 56 L 50 61 C 50 62.652344 51.347656 64 53 64 C 54.652344 64 56 62.652344 56 61 L 56 56 L 61 56 C 62.652344 56 64 54.652344 64 53 L 64 47 C 64 45.347656 62.652344 44 61 44 L 58 44 L 58 15 C 58 13.347656 56.652344 12 55 12 L 51 12 C 50.648438 12 50.3125 12.070313 50 12.183594 L 50 5 C 50 3.347656 48.652344 2 47 2 Z M 39 4 L 47 4 C 47.550781 4 48 4.449219 48 5 L 48 44 L 38 44 L 38 5 C 38 4.449219 38.449219 4 39 4 Z M 27 8 L 35 8 C 35.550781 8 36 8.449219 36 9 L 36 44 L 26 44 L 26 9 C 26 8.449219 26.449219 8 27 8 Z M 41 8 C 40.445313 8 40 8.445313 40 9 C 40 9.554688 40.445313 10 41 10 L 45 10 C 45.554688 10 46 9.554688 46 9 C 46 8.445313 45.554688 8 45 8 Z M 29 12 C 28.445313 12 28 12.445313 28 13 C 28 13.554688 28.445313 14 29 14 L 33 14 C 33.554688 14 34 13.554688 34 13 C 34 12.445313 33.554688 12 33 12 Z M 16.722656 12.699219 C 16.8125 12.699219 16.898438 12.710938 16.984375 12.734375 L 22.78125 14.285156 C 23.3125 14.429688 23.632813 14.980469 23.488281 15.515625 L 16.238281 42.558594 C 16.171875 42.816406 16.003906 43.03125 15.773438 43.167969 C 15.542969 43.300781 15.273438 43.335938 15.015625 43.265625 L 9.21875 41.714844 C 8.6875 41.570313 8.371094 41.019531 8.515625 40.484375 L 15.761719 13.441406 C 15.828125 13.183594 15.996094 12.96875 16.226563 12.832031 C 16.378906 12.746094 16.550781 12.699219 16.722656 12.699219 Z M 51 14 L 55 14 C 55.550781 14 56 14.449219 56 15 L 56 44 L 50 44 L 50 42 L 54 42 C 54.554688 42 55 41.554688 55 41 C 55 40.445313 54.554688 40 54 40 L 50 40 L 50 20 L 54 20 C 54.554688 20 55 19.554688 55 19 C 55 18.445313 54.554688 18 54 18 L 50 18 L 50 15 C 50 14.449219 50.449219 14 51 14 Z M 17.035156 14.902344 C 16.652344 14.953125 16.3125 15.234375 16.207031 15.632813 C 16.0625 16.164063 16.382813 16.714844 16.914063 16.859375 L 20.78125 17.890625 C 20.867188 17.914063 20.953125 17.925781 21.039063 17.925781 C 21.480469 17.925781 21.886719 17.632813 22.003906 17.1875 C 22.148438 16.652344 21.828125 16.105469 21.296875 15.960938 L 17.433594 14.925781 C 17.300781 14.890625 17.164063 14.882813 17.035156 14.902344 Z M 24 21.328125 L 24 44 L 17.734375 44 C 17.925781 43.722656 18.082031 43.414063 18.171875 43.078125 Z M 10.828125 38.082031 C 10.441406 38.136719 10.101563 38.414063 9.996094 38.8125 C 9.851563 39.347656 10.171875 39.894531 10.703125 40.039063 L 14.566406 41.074219 C 14.652344 41.097656 14.738281 41.109375 14.828125 41.109375 C 15.269531 41.109375 15.675781 40.8125 15.792969 40.367188 C 15.9375 39.835938 15.617188 39.285156 15.085938 39.140625 L 11.21875 38.109375 C 11.085938 38.070313 10.953125 38.0625 10.828125 38.082031 Z M 29 40 C 28.445313 40 28 40.445313 28 41 C 28 41.554688 28.445313 42 29 42 L 33 42 C 33.554688 42 34 41.554688 34 41 C 34 40.445313 33.554688 40 33 40 Z M 41 40 C 40.445313 40 40 40.445313 40 41 C 40 41.554688 40.445313 42 41 42 L 45 42 C 45.554688 42 46 41.554688 46 41 C 46 40.445313 45.554688 40 45 40 Z M 3 46 L 61 46 C 61.550781 46 62 46.449219 62 47 L 62 53 C 62 53.550781 61.550781 54 61 54 L 3 54 C 2.449219 54 2 53.550781 2 53 L 2 47 C 2 46.449219 2.449219 46 3 46 Z M 7 48 C 6.398438 48 6 48.445313 6 49 L 6 51 C 6 51.554688 6.398438 52 7 52 C 7.601563 52 8 51.554688 8 51 L 8 49 C 8 48.445313 7.601563 48 7 48 Z M 12 48 C 11.398438 48 11 48.445313 11 49 L 11 51 C 11 51.554688 11.398438 52 12 52 C 12.601563 52 13 51.554688 13 51 L 13 49 C 13 48.445313 12.601563 48 12 48 Z M 17 48 C 16.398438 48 16 48.445313 16 49 L 16 51 C 16 51.554688 16.398438 52 17 52 C 17.601563 52 18 51.554688 18 51 L 18 49 C 18 48.445313 17.601563 48 17 48 Z M 22 48 C 21.398438 48 21 48.445313 21 49 L 21 51 C 21 51.554688 21.398438 52 22 52 C 22.601563 52 23 51.554688 23 51 L 23 49 C 23 48.445313 22.601563 48 22 48 Z M 27 48 C 26.398438 48 26 48.445313 26 49 L 26 51 C 26 51.554688 26.398438 52 27 52 C 27.601563 52 28 51.554688 28 51 L 28 49 C 28 48.445313 27.601563 48 27 48 Z M 32 48 C 31.398438 48 31 48.445313 31 49 L 31 51 C 31 51.554688 31.398438 52 32 52 C 32.601563 52 33 51.554688 33 51 L 33 49 C 33 48.445313 32.601563 48 32 48 Z M 37 48 C 36.398438 48 36 48.445313 36 49 L 36 51 C 36 51.554688 36.398438 52 37 52 C 37.601563 52 38 51.554688 38 51 L 38 49 C 38 48.445313 37.601563 48 37 48 Z M 42 48 C 41.398438 48 41 48.445313 41 49 L 41 51 C 41 51.554688 41.398438 52 42 52 C 42.601563 52 43 51.554688 43 51 L 43 49 C 43 48.445313 42.601563 48 42 48 Z M 47 48 C 46.398438 48 46 48.445313 46 49 L 46 51 C 46 51.554688 46.398438 52 47 52 C 47.601563 52 48 51.554688 48 51 L 48 49 C 48 48.445313 47.601563 48 47 48 Z M 52 48 C 51.398438 48 51 48.445313 51 49 L 51 51 C 51 51.554688 51.398438 52 52 52 C 52.601563 52 53 51.554688 53 51 L 53 49 C 53 48.445313 52.601563 48 52 48 Z M 57 48 C 56.398438 48 56 48.445313 56 49 L 56 51 C 56 51.554688 56.398438 52 57 52 C 57.601563 52 58 51.554688 58 51 L 58 49 C 58 48.445313 57.601563 48 57 48 Z M 10 56 L 12 56 L 12 61 C 12 61.550781 11.550781 62 11 62 C 10.449219 62 10 61.550781 10 61 Z M 52 56 L 54 56 L 54 61 C 54 61.550781 53.550781 62 53 62 C 52.449219 62 52 61.550781 52 61 Z"/></svg>

<svg xmlns="http://www.w3.org/2000/svg" viewBox="0 0 64 64" preserveAspectRatio="none"><path d="M39 2c-1.652 0-3 1.348-3 3v1.184A2.93 2.93 0 0035 6h-8c-1.652 0-3 1.348-3 3v3.656a2.828 2.828 0 00-.703-.3L17.5 10.8a2.988 2.988 0 00-2.273.3 2.982 2.982 0 00-1.399 1.82L6.578 39.97a3.005 3.005 0 002.125 3.676l1.328.355H3c-1.652 0-3 1.348-3 3v6c0 1.652 1.348 3 3 3h5v5c0 1.652 1.348 3 3 3s3-1.348 3-3v-5h36v5c0 1.652 1.348 3 3 3s3-1.348 3-3v-5h5c1.652 0 3-1.348 3-3v-6c0-1.652-1.348-3-3-3h-3V15c0-1.652-1.348-3-3-3h-4c-.352 0-.688.07-1 .184V5c0-1.652-1.348-3-3-3zm0 2h8c.55 0 1 .45 1 1v39H38V5c0-.55.45-1 1-1zM27 8h8c.55 0 1 .45 1 1v35H26V9c0-.55.45-1 1-1zm14 0c-.555 0-1 .445-1 1 0 .555.445 1 1 1h4c.555 0 1-.445 1-1 0-.555-.445-1-1-1zm-12 4c-.555 0-1 .445-1 1 0 .555.445 1 1 1h4c.555 0 1-.445 1-1 0-.555-.445-1-1-1zm-12.277.7c.09 0 .175.01.261.034l5.797 1.551c.532.145.852.695.707 1.23l-7.25 27.044a.999.999 0 01-.465.609.988.988 0 01-.757.098l-5.797-1.551a1.004 1.004 0 01-.703-1.23l7.246-27.044a.999.999 0 01.96-.742zM51 14h4c.55 0 1 .45 1 1v29h-6v-2h4c.555 0 1-.445 1-1 0-.555-.445-1-1-1h-4V20h4c.555 0 1-.445 1-1 0-.555-.445-1-1-1h-4v-3c0-.55.45-1 1-1zm-33.965.902a.998.998 0 00-.828.73 1.004 1.004 0 00.707 1.227l3.867 1.032a.997.997 0 001.223-.703 1.002 1.002 0 00-.707-1.227l-3.863-1.035a.987.987 0 00-.399-.024zM24 21.328V44h-6.266c.192-.277.348-.586.438-.922zM10.828 38.082a1.004 1.004 0 00-.832.73 1.002 1.002 0 00.707 1.227l3.863 1.035a1 1 0 001.227-.707 1.004 1.004 0 00-.707-1.226l-3.867-1.032a.893.893 0 00-.39-.027zM29 40c-.555 0-1 .445-1 1 0 .555.445 1 1 1h4c.555 0 1-.445 1-1 0-.555-.445-1-1-1zm12 0c-.555 0-1 .445-1 1 0 .555.445 1 1 1h4c.555 0 1-.445 1-1 0-.555-.445-1-1-1zM3 46h58c.55 0 1 .45 1 1v6c0 .55-.45 1-1 1H3c-.55 0-1-.45-1-1v-6c0-.55.45-1 1-1zm4 2c-.602 0-1 .445-1 1v2c0 .555.398 1 1 1s1-.445 1-1v-2c0-.555-.398-1-1-1zm5 0c-.602 0-1 .445-1 1v2c0 .555.398 1 1 1s1-.445 1-1v-2c0-.555-.398-1-1-1zm5 0c-.602 0-1 .445-1 1v2c0 .555.398 1 1 1s1-.445 1-1v-2c0-.555-.398-1-1-1zm5 0c-.602 0-1 .445-1 1v2c0 .555.398 1 1 1s1-.445 1-1v-2c0-.555-.398-1-1-1zm5 0c-.602 0-1 .445-1 1v2c0 .555.398 1 1 1s1-.445 1-1v-2c0-.555-.398-1-1-1zm5 0c-.602 0-1 .445-1 1v2c0 .555.398 1 1 1s1-.445 1-1v-2c0-.555-.398-1-1-1zm5 0c-.602 0-1 .445-1 1v2c0 .555.398 1 1 1s1-.445 1-1v-2c0-.555-.398-1-1-1zm5 0c-.602 0-1 .445-1 1v2c0 .555.398 1 1 1s1-.445 1-1v-2c0-.555-.398-1-1-1zm5 0c-.602 0-1 .445-1 1v2c0 .555.398 1 1 1s1-.445 1-1v-2c0-.555-.398-1-1-1zm5 0c-.602 0-1 .445-1 1v2c0 .555.398 1 1 1s1-.445 1-1v-2c0-.555-.398-1-1-1zm5 0c-.602 0-1 .445-1 1v2c0 .555.398 1 1 1s1-.445 1-1v-2c0-.555-.398-1-1-1zm-47 8h2v5c0 .55-.45 1-1 1s-1-.45-1-1zm42 0h2v5c0 .55-.45 1-1 1s-1-.45-1-1z"/></svg>
